X:2
T:Bay Tree
C:Andy Cutting
R:Waltz
M:3/4
L:1/8
K:G
B4 AB | d4 BA | G2 FG Ac |  B2 A4 |
B4 AB | d4 BA | G2 FG AB | A6 | 
B4 AB | d4 BA | G2 FG Ac |  B2 A4 |
B4 AB | d4 BA | G2 FG AB | A4 GA || 
B2 GD GB | c2 AF Ac | d2 BG Bd | e4 dc |
B2 GB dB | c2 Ac ec | d2 BG Bd | e4 dc |
B2 GD GB | c2 AF Ac | d2 BG Bd | e4 dc |
B2 GB dB | c2 Ac ec | d2 BG Bd | e6||
